Adwaita++-Light/panel/24/battery-caution.svg

<svg height="24" width="24" xmlns="http://www.w3.org/2000/svg">
  <g fill="#4285f4" transform="translate(1 1)">
    <path d="m9 4v1h-3v12c0 .554.446 1 1 1h8c.554 0 1-.446 1-1v-12h-3v-1z" opacity=".35"/>
    <path d="m6 15v2c0 .554.446 1 1 1h8c.554 0 1-.446 1-1v-2z"/>
  </g>
</svg>

<svg xmlns="http://www.w3.org/2000/svg" width="24" height="24" version="1.1">
 <defs>
  <style id="current-color-scheme" type="text/css">
   .ColorScheme-Text { color:#444444; } .ColorScheme-Highlight { color:#4285f4; }
  </style>
 </defs>
 <g transform="matrix(1,0,0,1,1,1)">
  <path style="opacity:0.35;fill:currentColor" class="ColorScheme-Highlight" d="M 9,4 V 5 H 6 V 17 C 6,17.554 6.446,18 7,18 H 15 C 15.554,18 16,17.554 16,17 V 5 H 13 V 4 Z"/>
  <path style="fill:currentColor" class="ColorScheme-Highlight" d="M 6 15 L 6 17 C 6 17.554 6.446 18 7 18 L 15 18 C 15.554 18 16 17.554 16 17 L 16 15 L 6 15 z"/>
 </g>
</svg>
